images/decoration/logo_htmlacademy.svg

<svg width="115" height="34" viewBox="0 0 115 34" fill="none" xmlns="http://www.w3.org/2000/svg">
<path d="M0 12.8999V15.4999H2.5V12.8999H0Z" fill="black"/>
<path d="M11.5999 4.5C9.9999 4.5 8.7999 5.2 7.9999 6.2H7.8999V0H5.8999V15.5H7.8999V10.2C7.8999 8.1 9.1999 6.6 11.1999 6.6C12.9999 6.6 14.0999 8 14.0999 9.8V15.5H16.0999V9.4C16.1999 6.4 14.2999 4.5 11.5999 4.5Z" fill="black"/>
<path d="M26.5999 4.8001H21.7999V1.1001H19.7999V4.9001H17.8999V6.9001H19.7999V12.9001C19.7999 14.6001 20.7999 15.6001 22.4999 15.6001H26.5999V13.6001H22.8999C22.1999 13.6001 21.7999 13.2001 21.7999 12.5001V6.8001H26.5999V4.8001Z" fill="black"/>
<path d="M41.1 4.6001C39.5 4.6001 38.2 5.4001 37.6 6.7001H37.5C36.9 5.5001 35.7 4.6001 34.1 4.6001C32.7 4.6001 31.6 5.4001 31 6.4001H30.9V4.8001H29V15.4001H31V10.0001C31 8.0001 32 6.5001 33.6 6.5001C35.1 6.5001 36 7.5001 36 9.1001V15.4001H38V9.8001C38 7.4001 39.4 6.5001 40.6 6.5001C42.1 6.5001 43 7.5001 43 9.1001V15.4001H45V8.9001C45.1 6.4001 43.6 4.6001 41.1 4.6001Z" fill="black"/>
<path d="M47.8 12.7C47.8 14.4 48.8 15.4 50.6 15.4H52.6V13.4H50.9001C50.2001 13.4 49.8 13 49.8 12.3V0H47.8V12.7Z" fill="black"/>
<path d="M28.9001 19.6999C28.0001 18.5999 26.7001 17.8999 25.0001 17.8999C21.9001 17.8999 19.6001 20.1999 19.6001 23.4999C19.6001 26.7999 21.9001 29.0999 25.0001 29.0999C26.8001 29.0999 28.0001 28.2999 28.8001 27.1999H28.9001V28.7999H30.9001V18.1999H28.9001V19.6999ZM25.3001 27.0999C23.1001 27.0999 21.7001 25.4999 21.7001 23.4999C21.7001 21.4999 23.1001 19.8999 25.3001 19.8999C27.5001 19.8999 28.9001 21.4999 28.9001 23.4999C28.9001 25.3999 27.5001 27.0999 25.3001 27.0999Z" fill="black"/>
<path d="M44.2 21.9999C43.7 19.5999 41.5999 17.8999 38.7999 17.8999C35.3999 17.8999 33.2 20.3999 33.2 23.4999C33.2 26.5999 35.3999 29.0999 38.7999 29.0999C41.5999 29.0999 43.7 27.2999 44.2 24.8999H42.0999C41.6999 26.1999 40.3999 27.1999 38.7999 27.1999C36.5999 27.1999 35.2 25.5999 35.2 23.5999C35.2 21.5999 36.5999 19.9999 38.7999 19.9999C40.3999 19.9999 41.5999 20.9999 42.0999 22.1999H44.2V21.9999Z" fill="black"/>
<path d="M55.1 19.6999C54.2 18.5999 52.9001 17.8999 51.2001 17.8999C48.1001 17.8999 45.8 20.1999 45.8 23.4999C45.8 26.7999 48.1001 29.0999 51.2001 29.0999C53.0001 29.0999 54.2 28.2999 55 27.1999H55.1V28.7999H57.1V18.1999H55.1V19.6999ZM51.5 27.0999C49.3 27.0999 47.9001 25.4999 47.9001 23.4999C47.9001 21.4999 49.3 19.8999 51.5 19.8999C53.7 19.8999 55.1 21.4999 55.1 23.4999C55.1 25.3999 53.6 27.0999 51.5 27.0999Z" fill="black"/>
<path d="M68.6999 19.7999C67.7999 18.6999 66.4999 17.8999 64.7999 17.8999C61.6999 17.8999 59.3999 20.1999 59.3999 23.4999C59.3999 26.7999 61.5999 29.0999 64.7999 29.0999C66.4999 29.0999 67.7999 28.2999 68.5999 27.2999H68.6999V28.7999H70.6999V13.3999H68.6999V19.7999ZM65.0999 27.0999C62.8999 27.0999 61.4999 25.4999 61.4999 23.4999C61.4999 21.4999 62.8999 19.8999 65.0999 19.8999C67.2999 19.8999 68.6999 21.4999 68.6999 23.4999C68.5999 25.4999 67.1999 27.0999 65.0999 27.0999Z" fill="black"/>
<path d="M78.3 17.8999C75 17.8999 72.8 20.3999 72.8 23.4999C72.8 26.4999 74.9 29.0999 78.3 29.0999C80.8 29.0999 82.8 27.7999 83.5 25.4999H81.4C80.9 26.4999 79.8 27.0999 78.4 27.0999C76.5 27.0999 75.1 25.7999 75 24.1999H83.8C84 20.5999 81.8 17.8999 78.3 17.8999ZM78.3 19.7999C80 19.7999 81.3 20.7999 81.6 22.3999H75.1C75.4 20.8999 76.6 19.7999 78.3 19.7999Z" fill="black"/>
<path d="M98.2001 17.8999C96.6001 17.8999 95.3001 18.6999 94.6001 19.8999H94.5001C93.9001 18.6999 92.7001 17.8999 91.1001 17.8999C89.7001 17.8999 88.6001 18.5999 88.0001 19.6999V18.1999H86.1001V28.7999H88.1001V23.3999C88.1001 21.3999 89.1001 19.9999 90.7001 19.8999C92.2001 19.8999 93.1001 20.8999 93.1001 22.4999V28.7999H95.1001V23.1999C95.1001 20.7999 96.5001 19.8999 97.7001 19.8999C99.2001 19.8999 100.1 20.8999 100.1 22.4999V28.7999H102.1V22.2999C102.2 19.6999 100.7 17.8999 98.2001 17.8999Z" fill="black"/>
<path d="M109.4 27.0001L105.8 18.1001H103.6L108.4 29.7001C108.1 30.6001 107.7 30.9001 106.7 30.9001H104.2V32.9001H106.7C108.5 32.9001 109.5 32.1001 110.2 30.3001L114.9 18.1001H112.8L109.4 27.0001Z" fill="black"/>
</svg>

<svg xmlns="http://www.w3.org/2000/svg" width="115" height="34" fill="none" viewBox="0 0 115 34"><path fill="#000" d="M0 12.8999v2.6h2.5v-2.6H0ZM11.5999 4.5c-1.6 0-2.8.7-3.6 1.7h-.1V0h-2v15.5h2v-5.3c0-2.1 1.3-3.6 3.3-3.6 1.8 0 2.9 1.4 2.9 3.2v5.7h2V9.4c.1-3-1.8-4.9-4.5-4.9ZM26.5999 4.8001h-4.8v-3.7h-2v3.8h-1.9v2h1.9v6c0 1.7 1 2.7 2.7 2.7h4.1v-2h-3.7c-.7 0-1.1-.4-1.1-1.1v-5.7h4.8v-2ZM41.1 4.6001c-1.6 0-2.9.8-3.5 2.1h-.1c-.6-1.2-1.8-2.1-3.4-2.1-1.4 0-2.5.8-3.1 1.8h-.1v-1.6H29v10.6h2v-5.4c0-2 1-3.5 2.6-3.5 1.5 0 2.4 1 2.4 2.6v6.3h2v-5.6c0-2.4 1.4-3.3 2.6-3.3 1.5 0 2.4 1 2.4 2.6v6.3h2v-6.5c.1-2.5-1.4-4.3-3.9-4.3ZM47.8 12.7c0 1.7 1 2.7 2.8 2.7h2v-2h-1.6999c-.7 0-1.1001-.4-1.1001-1.1V0h-2v12.7ZM28.9001 19.6999c-.9-1.1-2.2-1.8-3.9-1.8-3.1 0-5.4 2.3-5.4 5.6s2.3 5.6 5.4 5.6c1.8 0 3-.8 3.8-1.9h.1v1.6h2v-10.6h-2v1.5Zm-3.6 7.4c-2.2 0-3.6-1.6-3.6-3.6s1.4-3.6 3.6-3.6 3.6 1.6 3.6 3.6c0 1.9-1.4 3.6-3.6 3.6ZM44.2 21.9999c-.5-2.4-2.6001-4.1-5.4001-4.1-3.4 0-5.5999 2.5-5.5999 5.6 0 3.1 2.1999 5.6 5.5999 5.6 2.8 0 4.9001-1.8 5.4001-4.2h-2.1001c-.4 1.3-1.7 2.3-3.3 2.3-2.2 0-3.5999-1.6-3.5999-3.6s1.3999-3.6 3.5999-3.6c1.6 0 2.8 1 3.3 2.2H44.2v-.2ZM55.1 19.6999c-.9-1.1-2.1999-1.8-3.8999-1.8-3.1 0-5.4001 2.3-5.4001 5.6s2.3001 5.6 5.4001 5.6c1.8 0 2.9999-.8 3.7999-1.9h.1v1.6h2v-10.6h-2v1.5Zm-3.6 7.4c-2.2 0-3.5999-1.6-3.5999-3.6s1.3999-3.6 3.5999-3.6 3.6 1.6 3.6 3.6c0 1.9-1.5 3.6-3.6 3.6ZM68.6999 19.7999c-.9-1.1-2.2-1.9-3.9-1.9-3.1 0-5.4 2.3-5.4 5.6s2.2 5.6 5.4 5.6c1.7 0 3-.8 3.8-1.8h.1v1.5h2v-15.4h-2v6.4Zm-3.6 7.3c-2.2 0-3.6-1.6-3.6-3.6s1.4-3.6 3.6-3.6 3.6 1.6 3.6 3.6c-.1 2-1.5 3.6-3.6 3.6ZM78.3 17.8999c-3.3 0-5.5 2.5-5.5 5.6 0 3 2.1 5.6 5.5 5.6 2.5 0 4.5-1.3 5.2-3.6h-2.1c-.5 1-1.6 1.6-3 1.6-1.9 0-3.3-1.3-3.4-2.9h8.8c.2-3.6-2-6.3-5.5-6.3Zm0 1.9c1.7 0 3 1 3.3 2.6h-6.5c.3-1.5 1.5-2.6 3.2-2.6ZM98.2001 17.8999c-1.6 0-2.9.8-3.6 2h-.1c-.6-1.2-1.8-2-3.4-2-1.4 0-2.5.7-3.1 1.8v-1.5h-1.9v10.6h2v-5.4c0-2 1-3.4 2.6-3.5 1.5 0 2.4 1 2.4 2.6v6.3h2v-5.6c0-2.4 1.4-3.3 2.6-3.3 1.5 0 2.3999 1 2.3999 2.6v6.3h2v-6.5c.1-2.6-1.4-4.4-3.8999-4.4ZM109.4 27.0001l-3.6-8.9h-2.2l4.8 11.6c-.3.9-.7 1.2-1.7 1.2h-2.5v2h2.5c1.8 0 2.8-.8 3.5-2.6l4.7-12.2h-2.1l-3.4 8.9Z"/></svg>
